workspaces/client/public/images/svg/bitcoin.svg

<svg width="33" height="33" viewBox="0 0 33 33" fill="none" xmlns="http://www.w3.org/2000/svg">
<g clip-path="url(#clip0_72_405)">
<path fill-rule="evenodd" clip-rule="evenodd" d="M21.5308 14.3007C21.7466 12.8564 20.6469 12.08 19.1433 11.562L19.631 9.60559L18.4398 9.30879L17.9649 11.2137C17.6522 11.1357 17.3306 11.0621 17.0111 10.9892L17.4894 9.0717L16.2991 8.7749L15.811 10.7307C15.5519 10.6717 15.2975 10.6133 15.0506 10.5519L15.0519 10.5458L13.4095 10.1357L13.0927 11.4077C13.0927 11.4077 13.9763 11.6102 13.9577 11.6228C14.44 11.7432 14.5275 12.0624 14.5126 12.3154L13.957 14.5442C13.9902 14.5527 14.0333 14.5649 14.0808 14.5839L13.9553 14.5527L13.1762 17.675C13.1172 17.8215 12.9676 18.0413 12.6304 17.9579C12.6423 17.9752 11.7648 17.7418 11.7648 17.7418L11.1736 19.1054L12.7237 19.4917C12.8987 19.5356 13.0716 19.5807 13.2425 19.6253L13.2426 19.6253L13.2429 19.6254C13.3535 19.6542 13.4633 19.6829 13.5724 19.7108L13.0795 21.69L14.2691 21.9868L14.7575 20.029C15.0821 20.1172 15.3976 20.1986 15.7062 20.2752L15.2198 22.2239L16.4107 22.5207L16.9036 20.5456C18.9343 20.9299 20.4617 20.7749 21.1038 18.9385C21.6217 17.4596 21.0784 16.6065 20.0099 16.0499C20.788 15.8698 21.3741 15.358 21.5305 14.3007H21.5308ZM18.8094 18.1162C18.4713 19.4736 16.3463 18.912 15.3749 18.6552C15.2879 18.6322 15.2101 18.6117 15.1438 18.5952L15.7977 15.9736C15.8788 15.9938 15.9779 16.016 16.0902 16.0412L16.0903 16.0412C17.0953 16.2668 19.1548 16.7289 18.8098 18.1162H18.8094ZM16.2922 14.8248C17.1028 15.041 18.8696 15.5124 19.1774 14.2794C19.4921 13.0179 17.774 12.6377 16.9349 12.452C16.8406 12.4312 16.7574 12.4128 16.6894 12.3958L16.0965 14.7736C16.1526 14.7875 16.2184 14.8051 16.2922 14.8248Z" fill="white"/>
</g>
<defs>
<clipPath id="clip0_72_405">
<rect width="32" height="32" fill="white" transform="translate(0.711914 0.159424)"/>
</clipPath>
</defs>
</svg>

<svg xmlns="http://www.w3.org/2000/svg" width="33" height="33" fill="none"><g clip-path="url(#a)"><path fill="#fff" fill-rule="evenodd" d="M21.53 14.3c.217-1.444-.883-2.22-2.387-2.738l.488-1.956-1.191-.297-.475 1.905a49 49 0 0 0-.954-.225l.478-1.917-1.19-.297-.488 1.956q-.39-.088-.76-.18v-.005l-1.642-.41-.316 1.272s.883.202.865.215c.482.12.57.44.555.692l-.556 2.23q.05.011.124.039l-.126-.031-.779 3.122c-.059.146-.208.366-.546.283.012.017-.865-.216-.865-.216l-.591 1.363 1.55.387.518.133q.167.044.33.086l-.492 1.979 1.19.297.488-1.958q.486.132.948.246l-.486 1.949 1.19.297.494-1.975c2.03.384 3.558.229 4.2-1.607.518-1.48-.026-2.332-1.094-2.89.778-.18 1.364-.691 1.52-1.748m-2.72 3.816c-.339 1.358-2.464.796-3.435.54l-.231-.06.654-2.622c.08.02.18.042.292.067 1.005.226 3.065.688 2.72 2.075m-2.518-3.291c.81.216 2.578.687 2.885-.546.315-1.261-1.403-1.641-2.242-1.827l-.246-.056-.593 2.378z" clip-rule="evenodd"/></g><defs><clipPath id="a"><path fill="#fff" d="M.712.16h32v32h-32z"/></clipPath></defs></svg>
